Obsidian-SemiLight/actions/22s/labplot-worksheet.svg

<svg viewBox="0 0 22 22" xmlns="http://www.w3.org/2000/svg"><path d="m6 3-4 4v12h3v-1h-2v-10h4v-4h12v3h1v-4zm8 4-4.0019531 4.001953h-1.9960938v1h2.4101559l3.589844-3.5898436 2.123047 2.1230466.005859-.003906.003907.003906 2.828125-2.8281248c.002966.005-.707032-.7070312-.707032-.7070312l-2.125 2.125-2.126953-2.125-.001953.0019531zm-7 2v10h1 11v-.998047-.001953-1.132812l-.041016-.039063-2.828125-2.828125-.003906.003906-.005859-.003906-2.123047 2.123047-3.123047-3.123047h-1.4140625-1.4609375v-4zm1 5h2.460938l3.535156 3.535156.001953-.001953.001953.001953 2.126953-2.125 2.125 2.125.482422.464844h-10.734375z" fill="#4d4d4d"/></svg>

<svg xmlns="http://www.w3.org/2000/svg" viewBox="0 0 22 22">
  <defs id="defs3051">
    <style type="text/css" id="current-color-scheme">
      .ColorScheme-Text {
        color:#4d4d4d;
      }
      </style>
  </defs>
 <path 
     style="fill:currentColor;fill-opacity:1;stroke:none" 
     d="M 6 3 L 2 7 L 2 19 L 5 19 L 5 18 L 3 18 L 3 8 L 7 8 L 7 4 L 19 4 L 19 7 L 20 7 L 20 3 L 6 3 z M 14 7 L 9.9980469 11.001953 L 8.0019531 11.001953 L 8.0019531 12.001953 L 10.412109 12.001953 L 14.001953 8.4121094 L 16.125 10.535156 L 16.130859 10.53125 L 16.134766 10.535156 L 18.962891 7.7070312 C 18.965857 7.7120312 18.255859 7 18.255859 7 L 16.130859 9.125 L 14.003906 7 L 14.001953 7.0019531 L 14 7 z M 7 9 L 7 19 L 8 19 L 19 19 L 19 18.001953 L 19 18 L 19 16.867188 L 18.958984 16.828125 L 16.130859 14 L 16.126953 14.003906 L 16.121094 14 L 13.998047 16.123047 L 10.875 13 L 9.4609375 13 L 8 13 L 8 9 L 7 9 z M 8 14 L 10.460938 14 L 13.996094 17.535156 L 13.998047 17.533203 L 14 17.535156 L 16.126953 15.410156 L 18.251953 17.535156 L 18.734375 18 L 8 18 L 8 14 z "
	 class="ColorScheme-Text"
     />
</svg>
